svg/s/BR.svg

<svg width="16" height="12" viewBox="0 0 16 12" fill="none" xmlns="http://www.w3.org/2000/svg">
<g clip-path="url(#clip0_270_54984)">
<rect width="16" height="12" fill="white"/>
<path fill-rule="evenodd" clip-rule="evenodd" d="M0 0V12H16V0H0Z" fill="#009933"/>
<mask id="mask0_270_54984" style="mask-type:luminance" maskUnits="userSpaceOnUse" x="0" y="0" width="16" height="12">
<path fill-rule="evenodd" clip-rule="evenodd" d="M0 0V12H16V0H0Z" fill="white"/>
</mask>
<g mask="url(#mask0_270_54984)">
<g filter="url(#filter0_d_270_54984)">
<path fill-rule="evenodd" clip-rule="evenodd" d="M7.96339 1.85202L14.0643 6.10375L7.8804 10.0856L1.90446 6.02134L7.96339 1.85202Z" fill="#FFD221"/>
<path fill-rule="evenodd" clip-rule="evenodd" d="M7.96339 1.85202L14.0643 6.10375L7.8804 10.0856L1.90446 6.02134L7.96339 1.85202Z" fill="url(#paint0_linear_270_54984)"/>
</g>
<path fill-rule="evenodd" clip-rule="evenodd" d="M8 8.59998C9.38071 8.59998 10.5 7.48069 10.5 6.09998C10.5 4.71926 9.38071 3.59998 8 3.59998C6.61929 3.59998 5.5 4.71926 5.5 6.09998C5.5 7.48069 6.61929 8.59998 8 8.59998Z" fill="#2E42A5"/>
<mask id="mask1_270_54984" style="mask-type:luminance" maskUnits="userSpaceOnUse" x="5" y="3" width="6" height="6">
<path fill-rule="evenodd" clip-rule="evenodd" d="M8 8.59998C9.38071 8.59998 10.5 7.48069 10.5 6.09998C10.5 4.71926 9.38071 3.59998 8 3.59998C6.61929 3.59998 5.5 4.71926 5.5 6.09998C5.5 7.48069 6.61929 8.59998 8 8.59998Z" fill="white"/>
</mask>
<g mask="url(#mask1_270_54984)">
<path fill-rule="evenodd" clip-rule="evenodd" d="M7.19 7.285L7.07832 7.34371L7.09965 7.21936L7.0093 7.13129L7.13416 7.11314L7.19 7L7.24584 7.11314L7.3707 7.13129L7.28035 7.21936L7.30168 7.34371L7.19 7.285Z" fill="#F7FCFF"/>
<path fill-rule="evenodd" clip-rule="evenodd" d="M8.19 7.285L8.07832 7.34371L8.09965 7.21936L8.0093 7.13129L8.13416 7.11314L8.19 7L8.24584 7.11314L8.3707 7.13129L8.28035 7.21936L8.30168 7.34371L8.19 7.285Z" fill="#F7FCFF"/>
<path fill-rule="evenodd" clip-rule="evenodd" d="M8.19 7.88498L8.07832 7.94369L8.09965 7.81933L8.0093 7.73126L8.13416 7.71312L8.19 7.59998L8.24584 7.71312L8.3707 7.73126L8.28035 7.81933L8.30168 7.94369L8.19 7.88498Z" fill="#F7FCFF"/>
<path fill-rule="evenodd" clip-rule="evenodd" d="M7.69 5.785L7.57832 5.84371L7.59965 5.71936L7.5093 5.63129L7.63416 5.61314L7.69 5.5L7.74584 5.61314L7.8707 5.63129L7.78035 5.71936L7.80168 5.84371L7.69 5.785Z" fill="#F7FCFF"/>
<path fill-rule="evenodd" clip-rule="evenodd" d="M7.69 6.785L7.57832 6.84371L7.59965 6.71936L7.5093 6.63129L7.63416 6.61314L7.69 6.5L7.74584 6.61314L7.8707 6.63129L7.78035 6.71936L7.80168 6.84371L7.69 6.785Z" fill="#F7FCFF"/>
<path fill-rule="evenodd" clip-rule="evenodd" d="M6.99005 6.285L6.87837 6.34371L6.8997 6.21936L6.80935 6.13129L6.93421 6.11314L6.99005 6L7.04589 6.11314L7.17075 6.13129L7.0804 6.21936L7.10173 6.34371L6.99005 6.285Z" fill="#F7FCFF"/>
<path fill-rule="evenodd" clip-rule="evenodd" d="M6.28998 6.68502L6.1783 6.74374L6.19963 6.61938L6.10927 6.53131L6.23414 6.51317L6.28998 6.40002L6.34582 6.51317L6.47068 6.53131L6.38033 6.61938L6.40165 6.74374L6.28998 6.68502Z" fill="#F7FCFF"/>
<path fill-rule="evenodd" clip-rule="evenodd" d="M8.59002 4.98501L8.47835 5.04373L8.49967 4.91937L8.40932 4.8313L8.53418 4.81316L8.59002 4.70001L8.64586 4.81316L8.77073 4.8313L8.68037 4.91937L8.7017 5.04373L8.59002 4.98501Z" fill="#F7FCFF"/>
<path d="M4.9624 5.49857L5.03759 4.5014C7.43656 4.6823 9.33001 5.47108 10.6941 6.87419L9.9771 7.57126C8.79481 6.35515 7.13119 5.66211 4.9624 5.49857Z" fill="#F7FCFF"/>
</g>
</g>
</g>
<defs>
<filter id="filter0_d_270_54984" x="1.90442" y="1.85199" width="12.1599" height="8.23364" filterUnits="userSpaceOnUse" color-interpolation-filters="sRGB">
<feFlood flood-opacity="0" result="BackgroundImageFix"/>
<feColorMatrix in="SourceAlpha" type="matrix" values="0 0 0 0 0 0 0 0 0 0 0 0 0 0 0 0 0 0 127 0" result="hardAlpha"/>
<feOffset/>
<feColorMatrix type="matrix" values="0 0 0 0 0.0313726 0 0 0 0 0.368627 0 0 0 0 0 0 0 0 0.28 0"/>
<feBlend mode="normal" in2="BackgroundImageFix" result="effect1_dropShadow_270_54984"/>
<feBlend mode="normal" in="SourceGraphic" in2="effect1_dropShadow_270_54984" result="shape"/>
</filter>
<linearGradient id="paint0_linear_270_54984" x1="16" y1="12" x2="16" y2="0" gradientUnits="userSpaceOnUse">
<stop stop-color="#FFC600"/>
<stop offset="1" stop-color="#FFDE42"/>
</linearGradient>
<clipPath id="clip0_270_54984">
<rect width="16" height="12" fill="white"/>
</clipPath>
</defs>
</svg>

<svg width="16" height="12" fill="none" xmlns="http://www.w3.org/2000/svg">
  <mask id="a" maskUnits="userSpaceOnUse" x="0" y="0" width="16" height="12">
    <path fill="#fff" d="M0 0h16v12H0z"/>
  </mask>
  <g mask="url(#a)">
    <path fill-rule="evenodd" clip-rule="evenodd" d="M0 0v12h16V0H0z" fill="#093"/>
    <mask id="b" maskUnits="userSpaceOnUse" x="0" y="0" width="16" height="12">
      <path fill-rule="evenodd" clip-rule="evenodd" d="M0 0v12h16V0H0z" fill="#fff"/>
    </mask>
    <g mask="url(#b)">
      <g filter="url(#BR_-_Brazil__filter0_d)" fill-rule="evenodd" clip-rule="evenodd">
        <path d="M7.963 1.852l6.101 4.252-6.184 3.982L1.904 6.02l6.06-4.169z" fill="#FFD221"/>
        <path d="M7.963 1.852l6.101 4.252-6.184 3.982L1.904 6.02l6.06-4.169z" fill="url(#BR_-_Brazil__paint0_linear)"/>
      </g>
      <path fill-rule="evenodd" clip-rule="evenodd" d="M8 8.6a2.5 2.5 0 100-5 2.5 2.5 0 000 5z" fill="#2E42A5"/>
      <mask id="c" maskUnits="userSpaceOnUse" x="5" y="3" width="6" height="6">
        <path fill-rule="evenodd" clip-rule="evenodd" d="M8 8.6a2.5 2.5 0 100-5 2.5 2.5 0 000 5z" fill="#fff"/>
      </mask>
      <g mask="url(#c)" fill="#F7FCFF">
        <path fill-rule="evenodd" clip-rule="evenodd" d="M7.19 7.285l-.112.059.022-.125-.09-.088.124-.018L7.19 7l.056.113.125.018-.09.088.02.125-.111-.059zm1 0l-.112.059.022-.125-.09-.088.124-.018L8.19 7l.056.113.125.018-.09.088.02.125-.111-.059zm0 .6l-.112.059.022-.125-.09-.088.124-.018.056-.113.056.113.125.018-.09.088.02.125-.111-.059zm-.5-2.1l-.112.059.022-.125-.09-.088.124-.018.056-.113.056.113.125.018-.09.088.02.125-.111-.059zm0 1l-.112.059.022-.125-.09-.088.124-.018.056-.113.056.113.125.018-.09.088.02.125-.111-.059zm-.7-.5l-.112.059.022-.125-.09-.088.124-.018L6.99 6l.056.113.125.018-.09.088.02.125-.11-.059zm-.7.4l-.112.059.022-.125-.09-.088.124-.018.056-.113.056.113.125.018-.09.088.02.125-.111-.059zm2.3-1.7l-.112.059.022-.125-.09-.088.124-.018.056-.113.056.113.125.018-.09.088.02.125-.111-.059z"/>
        <path d="M4.962 5.499l.076-.998c2.399.181 4.292.97 5.656 2.373l-.717.697C8.795 6.355 7.131 5.662 4.962 5.5z"/>
      </g>
    </g>
  </g>
  <defs>
    <linearGradient id="BR_-_Brazil__paint0_linear" x1="16" y1="12" x2="16" y2="0" gradientUnits="userSpaceOnUse">
      <stop stop-color="#FFC600"/>
      <stop offset="1" stop-color="#FFDE42"/>
    </linearGradient>
    <filter id="BR_-_Brazil__filter0_d" x="1.904" y="1.852" width="12.16" height="8.234" filterUnits="userSpaceOnUse" color-interpolation-filters="sRGB">
      <feFlood flood-opacity="0" result="BackgroundImageFix"/>
      <feColorMatrix in="SourceAlpha" values="0 0 0 0 0 0 0 0 0 0 0 0 0 0 0 0 0 0 127 0"/>
      <feOffset/>
      <feColorMatrix values="0 0 0 0 0.0313726 0 0 0 0 0.368627 0 0 0 0 0 0 0 0 0.28 0"/>
      <feBlend in2="BackgroundImageFix" result="effect1_dropShadow"/>
      <feBlend in="SourceGraphic" in2="effect1_dropShadow" result="shape"/>
    </filter>
  </defs>
</svg>
